_includes/icons/color-medical-doctor.svg

<svg fill="#666" height="50" viewBox="0 0 48 48" width="50" xmlns="http://www.w3.org/2000/svg"><path d="m24 40-5-9v-6h10v6z" fill="#ff9800"/><path d="m17 19c0 1.105469-.894531 2-2 2s-2-.894531-2-2 .894531-2 2-2 2 .894531 2 2" fill="#ffa726"/><path d="m35 19c0 1.105469-.894531 2-2 2s-2-.894531-2-2 .894531-2 2-2 2 .894531 2 2" fill="#ffa726"/><path d="m33 13c0-7.636719-18-4.972656-18 0v7c0 4.972656 4.027344 9 9 9s9-4.027344 9-9z" fill="#ffb74d"/><path d="m27 19c0 .550781.449219 1 1 1s1-.449219 1-1-.449219-1-1-1-1 .449219-1 1" fill="#784719"/><path d="m19 19c0 .550781.449219 1 1 1s1-.449219 1-1-.449219-1-1-1-1 .449219-1 1" fill="#784719"/><path d="m24 4c-6.074219 0-10 4.925781-10 11v2.285156l2 1.714844v-5l12-4 4 4v5l2-1.742187v-2.257813c0-4.023437-1.039062-8.015625-6-9l-1-2z" fill="#424242"/><path d="m29 31-5 9-5-9s-11 1.984375-11 13h32c0-10.976562-11-13-11-13z" fill="#b3e5fc"/><path d="m34 15s-5-1-10-1-10 1-10 1c0-4 1-10 1-10s2.375-2 9.25-2 8.75 2 8.75 2 1 6 1 10z" fill="#b3e5fc"/><g fill="#f44336"><path d="m23 6h2v6h-2z"/><path d="m21 8h6v2h-6z"/></g></svg>

<svg xmlns="http://www.w3.org/2000/svg" viewBox="0 0 48 48" width="50" height="50" fill="#666"><path d="M 24 40 L 19 31 L 19 25 L 29 25 L 29 31 Z" fill="#ff9800"/><path d="M 17 19 C 17 20.105469 16.105469 21 15 21 C 13.894531 21 13 20.105469 13 19 C 13 17.894531 13.894531 17 15 17 C 16.105469 17 17 17.894531 17 19" fill="#ffa726"/><path d="M 35 19 C 35 20.105469 34.105469 21 33 21 C 31.894531 21 31 20.105469 31 19 C 31 17.894531 31.894531 17 33 17 C 34.105469 17 35 17.894531 35 19" fill="#ffa726"/><path d="M 33 13 C 33 5.363281 15 8.027344 15 13 L 15 20 C 15 24.972656 19.027344 29 24 29 C 28.972656 29 33 24.972656 33 20 Z" fill="#ffb74d"/><path d="M 27 19 C 27 19.550781 27.449219 20 28 20 C 28.550781 20 29 19.550781 29 19 C 29 18.449219 28.550781 18 28 18 C 27.449219 18 27 18.449219 27 19" fill="#784719"/><path d="M 19 19 C 19 19.550781 19.449219 20 20 20 C 20.550781 20 21 19.550781 21 19 C 21 18.449219 20.550781 18 20 18 C 19.449219 18 19 18.449219 19 19" fill="#784719"/><path d="M 24 4 C 17.925781 4 14 8.925781 14 15 L 14 17.285156 L 16 19 L 16 14 L 28 10 L 32 14 L 32 19 L 34 17.257813 L 34 15 C 34 10.976563 32.960938 6.984375 28 6 L 27 4 Z" fill="#424242"/><path d="M 29 31 L 24 40 L 19 31 C 19 31 8 32.984375 8 44 L 40 44 C 40 33.023438 29 31 29 31 Z" fill="#b3e5fc"/><path d="M 34 15 C 34 15 29 14 24 14 C 19 14 14 15 14 15 C 14 11 15 5 15 5 C 15 5 17.375 3 24.25 3 C 31.125 3 33 5 33 5 C 33 5 34 11 34 15 Z" fill="#b3e5fc"/><path d="M 23 6 L 25 6 L 25 12 L 23 12 Z" fill="#f44336"/><path d="M 21 8 L 27 8 L 27 10 L 21 10 Z" fill="#f44336"/></svg>
